X:272
T: I HAB EIN ARTIGES BLUEMELI GSEH
N: Z0270
O: Europa, Mitteleuropa, Schweiz
R: Lyrisches Lied, Romanze, Tod
M: 4/4
L: 1/8
K: Ab
ec | A2A2A2fe | e2ecd2z
d | ceeefedc | B4z2
Bc | d2dcB2fe | e2edc2
e2 | f2e2d2c2 | BAGAB2
ed | c2ccc2ec | B2BBB2
ed | c2c2B2B2 | c6
ed | c2ccc2ed | B2BBB2
ed | c2c2B2B2 | A6

